X:029occ
T:Bridget Cruise (4th Setting)
C:Turlough O'Carolan (1670-1738)
C:ANDANTE
B:Complete Works Of Turlough O'Carolan (PB - no pub - no date - fleamarket find)
Z:by Chris Gilb; check and conversions by Vince Brennan
N:Bloody popular girl, that!
I:abc2nwc
M:3/4
L:1/8
K:G
(3def|g2c'b ag|g4g3/2f/2|e2gfed|e4g3/2f/2|ed cB A{BA}G|FE FG A3/2G/2|G6|G4 (3def|
g2c'b ag|g4g3/2f/2|e2gfed|e4g3/2f/2|ed cB A{BA}G|FE FG A3/2G/2|G6|G4 (3cBA|
G3A B3/2c/2|d4g3/2f/2|e2gfed|e4 (3cBA|G3/2A/2 B3/2c/2 de/2f/2|g2g3/2b/2 a3/2g/2|f2 Te3d|d4 (3def|
g2gb af|g4f3/2g/2|f2gf ed|e4g3/2f/2|ed cB AG|FE FG A3/2G/2|G6|G4|]

